X: 1187
T: Take Your Choice
M:C|
L:1/8
R:Reel
B:O'Neill's 1187
N:Collected by J. O'Neill
Z:Transcribed by Trish O'Nei
K:G
ge |: dG (3GGG (dG)Bd | efga bage | dG (3GGG (dG)Bd | egdB (TBA)A2 |
dG (3GGG (dG)Bd | efga bage | dGFG BABd | efga (bg)g2 :|
g2(ba) gddg | egdg egdg | a2(ba) geef | gedB (TBA)A2 |
bagb agfa | egdg egdg | bgaf gfed | efga (bg)g2 |]


